src/images/svg/principles/responsible.svg

<svg width="180" height="180" viewBox="0 0 180 180" fill="none" xmlns="http://www.w3.org/2000/svg">
<path fill-rule="evenodd" clip-rule="evenodd" d="M11.25 45C5.0368 45 0 50.0368 0 56.25V168.75C0 174.963 5.03679 180 11.25 180H123.75C129.963 180 135 174.963 135 168.75V56.25C135 50.0368 129.963 45 123.75 45H11.25ZM73.1252 56.25H61.8752V67.8093C37.5903 70.4953 18.4832 90.3591 16.9743 114.98C18.1934 114.296 19.5996 113.906 21.097 113.906C24.2201 113.906 26.9468 115.603 28.4057 118.125H30.6631C32.122 115.603 34.8487 113.906 37.9718 113.906C41.0949 113.906 43.8216 115.603 45.2805 118.125H47.5381C48.997 115.603 51.7237 113.906 54.8468 113.906C57.7798 113.906 60.3632 115.403 61.8752 117.674V146.25C61.8752 152.463 56.8384 157.5 50.6252 157.5C44.412 157.5 39.3752 152.463 39.3752 146.25V140.625H28.1252V146.25C28.1252 158.676 38.1988 168.75 50.6252 168.75C63.0517 168.75 73.1252 158.676 73.1252 146.25V117.682C74.6365 115.406 77.2227 113.906 80.1593 113.906C83.2824 113.906 86.0091 115.603 87.468 118.125H89.7254C91.1843 115.603 93.9111 113.906 97.0341 113.906C100.157 113.906 102.884 115.603 104.343 118.125H106.6C108.059 115.603 110.786 113.906 113.909 113.906C115.407 113.906 116.813 114.296 118.032 114.98C116.523 90.3571 97.4129 70.4921 73.1252 67.8086V56.25Z" fill="#77A0C6" fill-opacity="0.64"/>
<g style="mix-blend-mode:multiply">
<rect x="78.75" width="101.25" height="101.25" rx="11.25" fill="#77A0C6"/>
</g>
<path d="M123.701 70.9239L106.875 54.0978L113.918 47.0543L123.701 56.837L146.788 33.75L153.832 40.7935L123.701 70.9239Z" fill="white"/>
</svg>

<svg width="180" height="180" fill="none" xmlns="http://www.w3.org/2000/svg"><path fill-rule="evenodd" clip-rule="evenodd" d="M11.25 45C5.037 45 0 50.037 0 56.25v112.5C0 174.963 5.037 180 11.25 180h112.5c6.213 0 11.25-5.037 11.25-11.25V56.25c0-6.213-5.037-11.25-11.25-11.25H11.25Zm61.875 11.25h-11.25v11.56c-24.285 2.685-43.392 22.55-44.9 47.17a8.4 8.4 0 0 1 4.122-1.074 8.434 8.434 0 0 1 7.309 4.219h2.257a8.434 8.434 0 0 1 7.309-4.219 8.434 8.434 0 0 1 7.309 4.219h2.257a8.434 8.434 0 0 1 7.309-4.219 8.43 8.43 0 0 1 7.028 3.768v28.576c0 6.213-5.037 11.25-11.25 11.25s-11.25-5.037-11.25-11.25v-5.625h-11.25v5.625c0 12.426 10.074 22.5 22.5 22.5 12.427 0 22.5-10.074 22.5-22.5v-28.568a8.43 8.43 0 0 1 7.034-3.776 8.434 8.434 0 0 1 7.309 4.219h2.257a8.434 8.434 0 0 1 7.31-4.219 8.435 8.435 0 0 1 7.308 4.219h2.257a8.435 8.435 0 0 1 7.309-4.219c1.498 0 2.904.39 4.123 1.074-1.509-24.623-20.62-44.488-44.907-47.171V56.25Z" fill="#77A0C6" fill-opacity=".64"/><rect x="78.75" width="101.25" height="101.25" rx="11.25" fill="#77A0C6" style="mix-blend-mode:multiply"/><path d="m123.701 70.924-16.826-16.826 7.043-7.044 9.783 9.783 23.087-23.087 7.044 7.044-30.131 30.13Z" fill="#fff"/></svg>
